X: 1
T:no name
R:jig
S:Version 2: Kevin Finucane
Z:id:hn-jig-82
M:6/8
K:G
dBG ~B3|dBG ~A3|GBd ~g3|edB Age|dBG ~B3|dBG ~A3|GBd ~g3|1 edB G2e:|2 edB G2A||
Bdd edd|gdd edd|Bde ~g3|edB ~A3|Bdd edd|gdd edd|Bde ~g3|edB G2A|
Bdd edd|gdd edd|Bde ~g3|edB Age|dBG ~B3|dBG ~A3|GBd ~g3|edB G2e||
K:A
"Version 2"
ecA ~c3|ecA ~B3|Ace ~a3|fec Baf|ecA ~c3|ecA ~B3|Ace ~a3|1 fec A2f:|2 fec A2B||
|:cee fee|aee fea|Ace ~a3|fec B2d|cee fee|aee fea|Ace ~a3|1 fec A2B:|2 fec A2f||
